!!!COM: Bach, Johann Sebastian
!!!OTL: Meine Augen schliess' ich jetzt
!!!ONM: No. 258
!!!OCL: Erk
!!!YOE: Riemenschneider, Albert
!!!OPR: 371 Harmonized Chorales and 69 Chorale Melodies with Figured Bass
!!!OPT: Bach Chorale Harmonizations
**kern	**kern	**kern	**kern
! bass	! tenor	! alto	! soprano
*M4/4	*M4/4	*M4/4	*M4/4
*G:	*G:	*G:	*G:
8GG	8B	4d	4g
8AA	8A	.	.
=1	=1	=1	=1
8BB	4G	4d	4g
8C	.	.	.
8D	4F#	4A	4d
8C	.	.	.
4BB	4G	4d	4g
4AA	4c	8e	4a
.	.	8f#	.
=2	=2	=2	=2
2GG;	2d;	2g;	2b;
4r	4r	4r	4r
4BB	4d	[4g	4dd
=3	=3	=3	=3
[4C	4c	8g]	4ee
.	.	8f#	.
8C]	4d	[4g	4dd
8BB	.	.	.
4AA	8e	8g]	4.cc
.	16d	16f#	.
.	16c	16e	.
4DD	4d	4f#	.
.	.	.	8dd
=4	=4	=4	=4
2GG;	2d;	2g;	2b;
4r	4r	4r	4r
4GG	4B	[4g	4dd
=5	=5	=5	=5
4AA	4c	8g]	4cc
.	.	8f#	.
8BB	4d	[4g	4b
8C	.	.	.
4D	[4d	8g]	4a
.	.	8f#	.
4E	8d]	8g	4g
.	8c#	8G	.
=6	=6	=6	=6
2D;	2f#;	2d;	2a;
4r	4r	4r	4r
4D#	4B	4f#	4b
=7	=7	=7	=7
4.E	4B	8f#	4g
.	.	16e	.
.	.	16f#	.
.	8e	8g	4cc
8F#	8d	[8a	.
4G	4d	8a]	4b
.	.	8g	.
4D	8.d	8g	4a
.	.	8f#	.
.	16c	.	.
=8	=8	=8	=8
2GG;	2B;	2d;	2g;
4r	4r	4r	4r
8GG	4d	4g	8b
8AA	.	.	8cc
=9	=9	=9	=9
4.BB	8d	4g	4dd
.	8c	.	.
.	4B	4g	4dd
8E	.	.	.
4AA	4c	8g	4cc
.	.	8f#	.
8BB	4d	4g	4b
8C	.	.	.
=10	=10	=10	=10
2D;	2d;	4g	2a;
.	.	4f#;	.
4r	4r	4r	4r
4D#	4B	4f#	4b
=11	=11	=11	=11
8E	8B	4e	4g
8Dn	8c	.	.
8C	4d	4d	4g
8BB	.	.	.
8C	4c	4e	4a
8BB	.	.	.
8AA	[4B	4e	4b
8GG#	.	.	.
=12	=12	=12	=12
8AA	8B]	2e	2cc
8BB	16A	.	.
.	16G#	.	.
8C	4A	.	.
8D	.	.	.
4E;	8A	4e;	4b;
.	8G#;	.	.
4BB	4Gn	8d	4dd
.	.	8fn	.
=13	=13	=13	=13
4C	4G	8e	4cc
.	.	[8g	.
4D	4d	8g]	4a
.	.	8f#	.
8G	4d	4g	4b
8F#	.	.	.
4E	4e	4g	4cc
=14	=14	=14	=14
2BB;	2d;	2g;	2dd;
4r	4r	4r	4r
8E	4B	[4e	4g
8D	.	.	.
=15	=15	=15	=15
4C	8c	8e]	4a
.	8d	8f#	.
8BB	8d	[4g	4b
8E	16e	.	.
.	16d	.	.
4AA	4c	8g]	4cc
.	.	8f#	.
8BB	4d	4g	4b
8GG	.	.	.
=16	=16	=16	=16
4C	4e	8g	2a
.	.	16f#	.
.	.	16e	.
4D	8.d	4f#	.
.	16c	.	.
4GG;	4B;	4d;	4g;
==	==	==	==
*-	*-	*-	*-
!!!CDT: 1685/3//-1750/7/28
!!!OCY: Deutschland
!!!AGN: chorale
!!!AST: Baroque
!!!AIN: vox
!!!YOY: 1941
!!!PPP: New York; London
!!!PPR: G. Schirmer
!!!ENC: David Huron
!!!EED: David Huron
!!!YEN: United States of America
!!!YER: 1992
!!!YEC: Copyright 1992 David Huron
!!!YEM: Rights to all derivative electronic formats reserved.
!!!YER: March 20, 1996
!!!AMT: simple quadruple
!!!EEV: 1.1
